X:1
T:Title
%%score { ( 1 3 ) | ( 2 4 ) }
L:1/8
M:4/4
K:G
V:1 treble nm="Grand Piano"
V:3 treble 
V:2 bass 
V:4 bass 
V:1
 z4 z2[Q:1/4=100] D2 | G>G G>A B2 G>G | [EA]>[EG] [EG]>E G3 G | %3
 [FA]>[FA] [FA]>[FA] [Fd]2 [DF]>[DF] | [^CA]>[CG] [CF]>[CE] D3 D | G>G G>A B2 G>G | %6
 [FA]>[FA] [GB]>[=FB] [Ec]3 [Ec] | z4 d2 z2 |[M:7/8] [B,DG]>[B,DG][DGB]>[CFA] [B,G]3 | %9
[M:1/4] [DGB]2 |[M:4/4] [Gd]4 e2 d2 | [Fd]>[Ac] [Ac]>[^GB] [Ac]2 [Ac]2 | [Ac]4 z4 | %13
 [Ac]>B B>A B2 z C | [B,G]3 [B,G] [DA]2 [FA]2 |[M:9/8] [GB]2 [Gd]- [Gd] [Ge]2- [Ge] [Ec]2 | %16
[M:4/4] [DB]3 [B,DG] [DGB]2 [CFA]2 |[M:3/4] G2- [CG-]2 [B,G]2 |] %18
V:2
 z4 z2 [G,B,]2 | [G,B,D]>[G,B,D] [G,B,D]>[G,CD][K:treble] [G,DG]2 [G,B,D]>[K:bass][G,B,D] | %2
 [C,C]>[C,C] [C,C]>[C,G,C] [G,B,D]3 [G,B,D] | [D,D]>[D,D] [D,D]>[D,D] [D,A,]2 [D,A,]>[D,A,] | %4
 [A,,A,]>[A,,E,] [A,,A,]>[A,,G,] [D,F,]3 [D,F,C] | %5
 [G,B,]>[K:treble][G,B,D] [G,B,D]>[G,CD] [G,DG]2 [G,B,D]>[K:bass][G,B,D] | %6
 [D,D]>[D,D] [G,D]>[G,D] [C,C]3 [C,G,] | [B,,G,]>[B,,G,] [B,,G,]>[B,,G,] [B,,G,]>C, G,>C, | %8
[M:7/8] D,>D,D,>D, G,3 |[M:1/4] G,2 |[M:4/4] z4[K:treble] G2 G2 | %11
 [D,A,]>[D,D] [D,D]>[D,D] [D,D]2 [D,D]2 | [D,D]>D, D,>[D,D] [D,D]>[D,D] [D,D]>[D,D] | %13
 [G,D]>[G,DG] [G,DG]>[G,DF] [G,DG]2[K:bass] [F,A,]2 | [G,,G,]3 [G,,G,] [D,F,]2 [D,D]2 | %15
[M:9/8] [G,D]2 [G,B,]- [G,B,] [C,C]2- [C,C] [C,G,]2 |[M:4/4] [D,G,]3 D, D,2 D,2 | %17
[M:3/4] z2 E,2 D,2 |] %18
V:3
 x8 | x8 | x8 | x8 | x8 | x8 | x8 | [Gd]>[Gd] [Gd]>[Ge] G->[EGc] [DGB]>[CEA] |[M:7/8] x7 | %9
[M:1/4] x2 |[M:4/4] z z/ B,/ B,>B z z/ C/ z z/ B,/ | x8 | z z/ D/ D>F [Bd]2 [Ac]2 | z4 z2 D2 | x8 | %15
[M:9/8] x9 |[M:4/4] x8 |[M:3/4] B,2 z2 z2 |] %18
V:4
 x8 | x4[K:treble] x7/2[K:bass] x/ | x8 | x8 | x8 | x3/2[K:treble] x6[K:bass] x/ | x8 | x8 | %8
[M:7/8] x7 |[M:1/4] x2 |[M:4/4] [G,B,]>G, G,>[K:treble][G,DG] [G,C]>G, [G,B,]>G, | x8 | x8 | %13
 x6[K:bass] x2 | x8 |[M:9/8] x9 |[M:4/4] x8 |[M:3/4] G,,6 |] %18

